images/logo.svg

<svg width="197" height="47" viewBox="0 0 197 47" fill="none" xmlns="http://www.w3.org/2000/svg">
<path d="M75 6.50689V6.96521L73.6463 8.18224L72.9773 8.15993L72.469 8.43457L72.6073 8.98558V9.37524L71.4282 9.95028L71.2225 10.7536V12.2676L72.1474 13.3679L72.0316 13.828L71.06 14.2176V14.8356L70.3616 15.2098L69.9017 15.4552H69.1393L67.9377 16.6723L68.1227 16.8559L68.3319 18.2326L67.5453 20.0247L67.2462 19.9783L67.1771 19.472L66.4302 19.4308L66.9437 20.3217L67.5453 21.0323L67.2912 22.0897L66.8745 22.766H66.4665L66.5287 21.997L66.1761 21.4443L65.6591 21.1748L65.6056 20.4813L65.7681 19.6093L65.5156 19.4479L64.9365 20.0453L65.1457 20.4813L65.1924 21.446L65.5623 21.6297L65.9548 22.3643L66.0395 22.7643L66.0914 23.0063L65.9288 23.535L66.5305 23.5814L66.9938 23.7839L66.878 24.3607L67.2704 24.613L67.2479 24.8413L66.8538 25.2087L67.547 25.7374V26.4257L67.0145 26.7467L67.3378 27.32L67.1079 27.8951L65.2805 28.192V28.9027L64.7498 29.9137L63.894 30.0991L63.7626 30.3205L63.2699 31.1531L63.2941 31.6131L62.1859 32.7821H61.7191L61.3492 33.5854L60.7475 33.9064L60.7372 34.0987L60.5868 36.4778L61.0259 37.0528L61.2126 37.8545L61.2368 37.8768L61.6984 38.2681V38.8895L62.8066 39.8302L62.9224 40.8876L63.3373 41.6583L64.1481 43.1603V45.4364H62.4366C62.4366 45.4364 62.4383 45.4158 62.4366 45.4107C62.3709 45.2425 61.9508 44.8786 61.9508 44.8786L61.306 44.9283V44.1473H60.8651L60.6801 43.8503V43.4143L60.3102 43.3903L59.5719 42.5406L59.6653 42.0583L59.2953 42.1046L59.1086 41.7613L59.1328 41.66L59.2953 40.958L59.1778 39.765L58.7853 39.6276L57.608 38.342L56.6122 38.2716L55.4349 38.9599L54.9715 39.0749L54.2558 38.021L52.3454 37.8802L52.0602 37.8596L52.0308 37.8802L51.4361 38.3179L51.1128 37.9506L50.7031 38.3111L48.9863 38.3179V39.0526L48.663 39.4886L49.5413 40.3846L49.0555 40.6816L47.8764 40.1306L47.2506 40.867L46.1891 40.8636L45.89 39.8302L44.6643 39.4869V40.0156L44.4119 40.1769L42.7228 39.7409H42.0071L39.7181 40.7503V41.2103L38.7949 41.8283L37.7766 42.036L37.4066 42.587L36.8984 42.6333L36.6218 43.2753L36.276 43.368L36.2985 44.7C36.2345 44.9198 36.2431 45.1824 36.2812 45.4364C36.3693 46.0098 36.6218 46.5573 36.6218 46.5573L36.3209 46.7856L35.0745 46.4183C34.2705 46.2638 33.7761 45.8364 33.4787 45.4364C33.1572 45.0056 33.0621 44.6073 33.0621 44.6073C32.9705 43.986 32.8322 43.7577 32.8322 43.7577C32.0698 43.3217 31.4906 41.715 31.4906 41.715C31.4837 41.6944 31.475 41.6772 31.4664 41.66C30.9132 40.3434 30.1266 39.6963 30.1266 39.6963H29.3641L29.1342 39.444L27.8393 39.3976V40.2937L27.0302 40.9116C25.8287 40.6147 24.9781 39.1316 24.9781 39.1316L25.0196 38.3196L22.3849 35.1526L19.9334 34.9689L19.7277 35.9113L15.3572 35.3826L10.3418 32.3752V31.5719H6.82023L6.70612 30.3257L6.65771 29.7833L6.05608 29.555V28.8666H5.50113L5.41642 28.3705L4.94791 28.2469L4.06793 27.169L2.91307 27.0316L2.52063 26.7106L2.57422 26.551L2.57595 26.5493L2.75056 26.0429L2.61226 25.7923L2.4947 25.4936L2.65721 25.0799L1.919 23.2672L1.70981 23.0819V22.8072L2.0331 22.4639V22.1206L1.50062 21.4992L1.5473 20.1448L1.0615 19.6162L1.10818 18.8815L0.567055 18.0695L0.622378 16.9813L0.784888 16.2878L0 15.4106L0.440851 14.8133L1.24821 13.5052L1.15659 12.8633L1.38652 12.4496L1.47988 10.7983L2.95975 8.13418V7.53682L3.20698 7.17806L3.42135 6.8708L3.88468 5.40315V4.99118L4.30132 4.50883L4.04719 4.0488L4.07658 3.30038L4.4621 2.92789L4.09386 2.8764L4.11634 2.3271L3.8864 2.21209V1.84647L4.11634 1.22851H4.43963L4.64882 1.77952L5.41123 2.0782L6.22032 2.21553V2.76826L5.87456 3.2506L5.41123 3.41024L5.50459 4.14492H6.17364L6.63697 3.59391V2.94849L6.82195 2.72019L6.45198 2.23784L6.71822 1.77781L6.82195 1.52719L6.61277 1.31949L6.82023 0.785645L9.68489 1.6628L13.2238 2.60347L14.4357 2.86953L14.5878 2.90215L20.6215 3.86684L20.7528 3.88401L22.2258 4.0591L29.7116 4.95857L36.2224 5.24351L39.2738 5.03925V4.44189L39.8996 4.80751V5.56451L41.1945 6.02454L41.5645 5.61086L42.5343 5.93185L42.8127 6.39188L43.7601 6.71288L44.5 6.48114L46.1165 6.73348L46.5107 6.11552L46.9947 6.06917L47.6413 5.38084L47.5964 5.12851L47.7813 4.7852L49.5378 4.85386L49.8611 5.06156L50.5319 6.32322L51.201 6.34725L51.3393 5.97991L51.9184 6.32322L51.9651 6.9223L52.3351 7.17291L52.3524 7.65698L52.3575 7.84065L52.75 7.86296V8.34531L53.1891 8.66631L53.3758 9.07828L54.9473 8.9873L57.3141 8.93924L58.2528 9.85931L58.9911 10.9596L58.7127 11.4351H57.6858L57.1671 10.8463L57.0046 10.939L57.0703 11.4351L57.1205 11.8093L56.6347 12.6813L56.958 14.0133L56.218 14.6107L56.1506 15.7814L55.3882 16.032V16.4234L56.2439 16.4697L57.468 15.069L58.6003 15.1377L59.5961 14.3584L60.2877 14.3807L60.4727 14.0133L60.3119 13.6924L59.5719 13.785L59.4561 13.2564L60.1943 12.5457L61.4425 11.8814L62.4159 11.926L62.2758 11.49L63.8231 10.848L64.1706 10.1374L65.1422 9.2877L68.8402 8.43629L69.0701 7.82005L69.6406 7.66041L69.6458 7.65869L69.7859 7.38405L69.8083 6.94804L70.1334 6.83304L70.1091 6.35069L69.8325 5.77564L70.2146 3.88229H72.7612L73.3697 5.77564L73.9247 5.79967L73.9904 6.39017L75 6.50689Z" fill="white"/>
<path d="M90.2773 21.7954V17.8181H106.08V21.7954H100.611V35.9999H95.746V21.7954H90.2773Z" fill="white"/>
<path d="M112.909 28.3295V35.9999H108.009V17.8181H112.732V24.9559H112.874C113.181 24.0859 113.693 23.4082 114.409 22.9229C115.126 22.4316 115.987 22.186 116.993 22.186C117.958 22.186 118.795 22.405 119.505 22.843C120.221 23.2809 120.775 23.8846 121.165 24.654C121.562 25.4235 121.757 26.3053 121.751 27.2996V35.9999H116.851V28.3295C116.857 27.6548 116.688 27.125 116.345 26.7403C116.007 26.3556 115.525 26.1633 114.898 26.1633C114.3 26.1633 113.821 26.3556 113.46 26.7403C113.098 27.125 112.915 27.6548 112.909 28.3295Z" fill="white"/>
<path d="M130.705 36.2485C128.521 36.2485 126.801 35.63 125.547 34.393C124.298 33.1501 123.673 31.4249 123.673 29.2173C123.673 27.8086 123.958 26.5776 124.526 25.5241C125.094 24.4706 125.896 23.6509 126.932 23.0649C127.967 22.479 129.19 22.186 130.598 22.186C131.971 22.186 133.164 22.4671 134.176 23.0294C135.194 23.5917 135.981 24.3966 136.537 25.4442C137.1 26.4858 137.381 27.7317 137.381 29.1817V30.3181H128.503V30.5312C128.503 31.1881 128.704 31.7326 129.107 32.1647C129.515 32.5908 130.083 32.8039 130.811 32.8039C131.314 32.8039 131.752 32.7003 132.125 32.4932C132.504 32.2801 132.764 31.9812 132.906 31.5965H137.381C137.15 33.017 136.452 34.1474 135.286 34.9879C134.126 35.8283 132.599 36.2485 130.705 36.2485ZM128.503 27.6192H132.871C132.859 27.0333 132.646 26.5569 132.232 26.1899C131.823 25.817 131.314 25.6306 130.705 25.6306C130.107 25.6306 129.592 25.8141 129.16 26.181C128.734 26.548 128.515 27.0274 128.503 27.6192Z" fill="white"/>
<path d="M155.085 17.8181H159.986V29.821C159.986 31.2059 159.661 32.3748 159.01 33.3277C158.364 34.2747 157.453 34.9938 156.275 35.485C155.103 35.9703 153.724 36.213 152.138 36.213C150.54 36.213 149.152 35.9703 147.974 35.485C146.802 34.9938 145.894 34.2747 145.249 33.3277C144.61 32.3748 144.29 31.2059 144.29 29.821V17.8181H149.226V29.6079C149.226 30.2826 149.484 30.8301 149.998 31.2503C150.519 31.6705 151.233 31.8806 152.138 31.8806C153.061 31.8806 153.783 31.6705 154.304 31.2503C154.825 30.8301 155.085 30.2826 155.085 29.6079V17.8181Z" fill="white"/>
<path d="M172.133 23.4999C172.086 22.9081 171.864 22.4464 171.467 22.115C171.077 21.7835 170.482 21.6178 169.683 21.6178C168.919 21.6178 168.363 21.748 168.014 22.0085C167.665 22.2689 167.487 22.6003 167.481 23.0028C167.458 23.4348 167.644 23.787 168.04 24.0592C168.443 24.3315 169.073 24.5594 169.931 24.7428L171.423 25.0624C173.429 25.4945 174.876 26.187 175.764 27.1398C176.652 28.0868 177.099 29.2528 177.105 30.6377C177.099 32.431 176.442 33.8101 175.134 34.7748C173.826 35.7336 172.021 36.213 169.718 36.213C168.138 36.213 166.759 35.9792 165.581 35.5117C164.409 35.0441 163.498 34.325 162.847 33.3543C162.202 32.3778 161.876 31.129 161.87 29.6079H166.558C166.599 30.4424 166.886 31.0786 167.419 31.5166C167.958 31.9487 168.7 32.1647 169.647 32.1647C170.44 32.1647 171.038 32.0227 171.441 31.7386C171.849 31.4545 172.056 31.0875 172.062 30.6377C172.056 30.2234 171.852 29.8801 171.45 29.6079C171.047 29.3297 170.34 29.0811 169.328 28.8621L167.517 28.4715C165.907 28.1223 164.637 27.5393 163.708 26.7226C162.785 25.8999 162.326 24.7783 162.332 23.3579C162.326 22.2038 162.634 21.1947 163.255 20.3305C163.883 19.4605 164.75 18.7828 165.857 18.2975C166.969 17.8122 168.245 17.5695 169.683 17.5695C171.151 17.5695 172.42 17.8152 173.491 18.3064C174.563 18.7976 175.388 19.4901 175.968 20.3838C176.554 21.2716 176.85 22.3103 176.856 23.4999H172.133Z" fill="white"/>
<path d="M182.997 35.9999H177.671L183.672 17.8181H190.419L196.421 35.9999H191.094L190.046 32.5198H184.045L182.997 35.9999ZM185.164 28.8266H188.928L187.117 22.8252H186.975L185.164 28.8266Z" fill="white"/>
</svg>

<svg width="197" height="47" fill="none" xmlns="http://www.w3.org/2000/svg"><path d="M75 6.507v.458l-1.354 1.217-.669-.022-.508.275.138.55v.39l-1.179.575-.206.804v1.514l.925 1.1-.115.46-.972.39v.618l-.698.374-.46.245h-.763l-1.201 1.217.185.184.209 1.377-.787 1.792-.299-.047-.069-.506-.747-.041.514.89.601.711-.254 1.058-.416.676h-.409l.063-.769-.353-.553-.517-.27-.053-.693.162-.872-.252-.161-.58.597.21.436.046.965.37.184.393.734.085.4.051.242-.162.529.602.046.463.203-.116.577.392.252-.022.228-.394.368.693.528v.689l-.532.32.323.574-.23.575-1.828.297v.71l-.53 1.012-.856.185-.131.221-.493.833.024.46-1.108 1.17h-.467l-.37.802-.601.321-.01.193-.151 2.379.439.575.187.802.024.022.461.391v.621l1.109.941.115 1.058.415.77.811 1.502v2.276h-1.711v-.025c-.066-.169-.486-.532-.486-.532l-.645.05v-.782h-.44l-.186-.297v-.436l-.37-.024-.738-.85.093-.482-.37.047-.186-.344.024-.101.162-.702-.117-1.193-.393-.137-1.177-1.286-.996-.07-1.177.688-.464.115-.715-1.054-1.91-.14-.286-.021-.03.02-.594.438-.323-.367-.41.36-1.717.007v.735l-.323.436.878.896-.485.297-1.18-.551-.625.736-1.062-.003-.299-1.034-1.226-.343v.529l-.252.16-1.69-.435h-.715l-2.289 1.01v.46l-.923.617-1.018.208-.37.551-.509.046-.276.642-.346.093.022 1.332c-.064.22-.055.482-.017.736.088.574.34 1.121.34 1.121l-.3.229-1.246-.368c-.805-.154-1.299-.582-1.596-.982a2.524 2.524 0 01-.417-.829c-.091-.621-.23-.85-.23-.85-.762-.435-1.341-2.042-1.341-2.042-.007-.02-.016-.038-.025-.055-.553-1.317-1.34-1.964-1.34-1.964h-.762l-.23-.252-1.295-.046v.896l-.809.618c-1.201-.297-2.052-1.78-2.052-1.78l.042-.812-2.635-3.167-2.452-.184-.205.942-4.37-.528-5.016-3.008v-.803H6.82l-.114-1.246-.048-.543-.602-.228v-.688h-.555l-.085-.497-.468-.123-.88-1.078-1.155-.137-.392-.321.053-.16.002-.002.175-.506-.139-.25-.117-.3.162-.413-.738-1.813-.21-.185v-.275l.324-.343v-.343l-.532-.622.046-1.354-.485-.529.046-.735-.54-.811.054-1.089.163-.693L0 15.41l.44-.598.808-1.308-.091-.642.23-.413.093-1.652 1.48-2.664v-.597l.247-.359.214-.307.464-1.468v-.412L4.3 4.51l-.254-.46.03-.749.385-.372-.368-.052.022-.549-.23-.115v-.366l.23-.617h.324l.209.55.762.3.81.137v.552l-.346.483-.464.16.094.734h.669l.463-.551v-.646l.185-.228-.37-.482.266-.46.104-.25-.21-.209.208-.533 2.865.877 3.539.94 1.212.267.152.032 6.034.965.13.017 1.474.175 7.486.9 6.51.285 3.052-.205v-.597l.626.366v.757l1.294.46.37-.414.97.32.279.46.947.322.74-.232 1.617.252.394-.617.484-.047.646-.688-.045-.252.185-.344 1.757.069.323.208.67 1.261.67.024.138-.367.58.343.046.6.37.25.017.484.006.184.392.022v.482l.44.321.186.412 1.571-.09 2.367-.049.939.92.738 1.1-.278.476h-1.027l-.519-.589-.162.093.065.496.05.374-.485.872.323 1.332-.74.598-.067 1.17-.763.251v.391l.856.047 1.224-1.401 1.132.069.996-.78.692.023.185-.368-.161-.32-.74.092-.116-.529.738-.71 1.248-.665.974.045-.14-.436 1.547-.642.348-.71.971-.85 3.698-.852.23-.616.57-.16.006-.001.14-.275.022-.436.325-.115-.024-.482-.276-.575.382-1.894h2.546l.609 1.894.555.024.065.59 1.01.117zM90.277 21.795v-3.977h15.803v3.977h-5.469V36h-4.865V21.795h-5.469zM112.909 28.33V36h-4.9V17.818h4.723v7.138h.142c.307-.87.819-1.548 1.535-2.033.717-.491 1.578-.737 2.584-.737.965 0 1.802.219 2.512.657a4.42 4.42 0 011.66 1.811c.397.77.592 1.651.586 2.646V36h-4.9v-7.67c.006-.675-.163-1.205-.506-1.59-.338-.384-.82-.577-1.447-.577-.598 0-1.077.193-1.438.577-.362.385-.545.915-.551 1.59zM130.705 36.248c-2.184 0-3.904-.618-5.158-1.855-1.249-1.243-1.874-2.968-1.874-5.176 0-1.408.285-2.64.853-3.693a6.089 6.089 0 012.406-2.46c1.035-.585 2.258-.878 3.666-.878 1.373 0 2.566.281 3.578.843a5.803 5.803 0 012.361 2.415c.563 1.042.844 2.288.844 3.738v1.136h-8.878v.213c0 .657.201 1.202.604 1.634.408.426.976.639 1.704.639.503 0 .941-.104 1.314-.31.379-.214.639-.513.781-.898h4.475c-.231 1.421-.929 2.551-2.095 3.392-1.16.84-2.687 1.26-4.581 1.26zm-2.202-8.629h4.368c-.012-.586-.225-1.062-.639-1.43-.409-.372-.918-.558-1.527-.558-.598 0-1.113.183-1.545.55-.426.367-.645.846-.657 1.438zM155.085 17.818h4.901v12.003c0 1.385-.325 2.554-.976 3.507-.646.947-1.557 1.666-2.735 2.157-1.172.485-2.551.728-4.137.728-1.598 0-2.986-.243-4.164-.728-1.172-.491-2.08-1.21-2.725-2.157-.639-.953-.959-2.122-.959-3.507V17.818h4.936v11.79c0 .675.258 1.222.772 1.642.521.42 1.235.63 2.14.63.923 0 1.645-.21 2.166-.63.521-.42.781-.967.781-1.642v-11.79zM172.133 23.5c-.047-.592-.269-1.054-.666-1.385-.39-.331-.985-.497-1.784-.497-.764 0-1.32.13-1.669.39s-.527.592-.533.995c-.023.432.163.784.559 1.056.403.272 1.033.5 1.891.684l1.492.32c2.006.431 3.453 1.124 4.341 2.077.888.947 1.335 2.113 1.341 3.498-.006 1.793-.663 3.172-1.971 4.137-1.308.959-3.113 1.438-5.416 1.438-1.58 0-2.959-.234-4.137-.701-1.172-.468-2.083-1.187-2.734-2.158-.645-.976-.971-2.225-.977-3.746h4.688c.041.834.328 1.47.861 1.909.539.432 1.281.648 2.228.648.793 0 1.391-.142 1.794-.426.408-.285.615-.652.621-1.101-.006-.415-.21-.758-.612-1.03-.403-.278-1.11-.527-2.122-.746l-1.811-.39c-1.61-.35-2.88-.933-3.809-1.75-.923-.822-1.382-1.944-1.376-3.364-.006-1.154.302-2.163.923-3.027.628-.87 1.495-1.548 2.602-2.034 1.112-.485 2.388-.727 3.826-.727 1.468 0 2.737.245 3.808.736 1.072.492 1.897 1.184 2.477 2.078.586.888.882 1.926.888 3.116h-4.723zM182.997 36h-5.326l6.001-18.182h6.747L196.421 36h-5.327l-1.048-3.48h-6.001L182.997 36zm2.167-7.173h3.764l-1.811-6.002h-.142l-1.811 6.002z" fill="#fff"/></svg>
